src/2-landmarks/house--default.svg

<svg width="1300" height="1000" viewBox="0 0 1300 1000" fill="none" xmlns="http://www.w3.org/2000/svg"><path fill-rule="evenodd" clip-rule="evenodd" d="M784.208 666.922c-.751-17.818-3.281-40.487-11.023-59.347-7.726-18.822-20.353-33.261-41.148-36.037l.926-6.938c24.229 3.233 38.452 20.23 46.698 40.317 1.611 3.924 3.005 7.989 4.21 12.124-1.139-24.265-4.021-47.339-11.052-65.97-4.682-12.409-11.136-22.649-19.964-29.958-8.787-7.275-20.15-11.836-35.022-12.548l.334-6.992c16.221.776 29.077 5.807 39.152 14.148 10.032 8.306 17.079 19.705 22.05 32.878 4.001 10.605 6.702 22.488 8.521 35.063 2.086-22.599 5.286-46.126 10.139-67.24 4.685-20.384 10.975-38.819 19.486-52.017 8.526-13.221 19.748-21.823 34.225-20.828l-.48 6.984c-10.865-.747-20.02 5.477-27.862 17.637-7.857 12.184-13.926 29.688-18.547 49.792-5.654 24.601-9.042 52.644-11.028 78.631 1.094-4.887 2.319-9.632 3.696-14.188 4.493-14.872 10.681-28.029 19.405-37.513 8.823-9.593 20.18-15.35 34.576-15.35v7c-12.268 0-21.807 4.806-29.424 13.088-7.717 8.39-13.512 20.421-17.856 34.799-8.188 27.099-10.917 61.453-12.452 92.543H819v47c0 11.045-8.954 20-20 20h-22c-11.046 0-20-8.955-20-20v-47h27.318a558.961 558.961 0 0 1-.11-10.078ZM777 737h22c7.18 0 13-5.821 13-13v-40h-48v40c0 7.179 5.82 13 13 13Zm-14 34.167V907h53V771.167h19V744h-94v27.167h22ZM828 751h-80v13.167h15v-.044h53v.044h12V751Zm-58 149V771.167h39V900h-39ZM66 653v-61c0-11.046 8.954-20 20-20h265c6.85 0 12.895 3.444 16.5 8.694 3.605-5.25 9.65-8.694 16.5-8.694h265c11.046 0 20 8.954 20 20v61h4.152c10.962 0 19.848 8.954 19.848 20v164h-38v70h-33v-70H120v70H87v-70H41V673c0-11.046 8.886-20 19.848-20H66Zm13.14 0 .14.006.214.009c7.083.277 13.213 4.294 16.5 10.146a20.088 20.088 0 0 1 2.65 9.768L98.92 697H364V592c0-7.18-5.82-13-13-13H86c-7.18 0-13 5.82-13 13v61h6.14ZM656 660c-7.456 0-13.5 6.044-13.5 13.5V704h-.112v36H91.612v-67c0-.906-.092-1.791-.267-2.645-1.236-5.691-6.15-10.024-12.163-10.347a14.708 14.708 0 0 0-.471-.008H60.848c-7.125 0-12.901 5.82-12.901 13v121h638.106V673c0-7.18-5.776-13-12.901-13H656ZM99 704v29h265v-29H99Zm536.124 0H371v29h264.124v-29ZM662 653v-61c0-7.18-5.82-13-13-13H384c-7.18 0-13 5.82-13 13v105h264.441v-24c0-11.046 8.887-20 19.848-20H662Zm24.053 177v-29H47.947v29h638.106ZM113 837.284H94v62.432h19v-62.432Zm535 0h-19v62.432h19v-62.432Z" fill="#000"/><path d="M0 900h1300v100H0V900Z" fill="#000"/></svg>

<svg width="1300" height="1000" viewBox="0 0 1300 1000" fill="none" xmlns="http://www.w3.org/2000/svg">
<path fill-rule="evenodd" clip-rule="evenodd" d="M784.208 666.922C783.457 649.104 780.927 626.435 773.185 607.575C765.459 588.753 752.832 574.314 732.037 571.538L732.963 564.6C757.192 567.833 771.415 584.83 779.661 604.917C781.272 608.841 782.666 612.906 783.871 617.041C782.732 592.776 779.85 569.702 772.819 551.071C768.137 538.662 761.683 528.422 752.855 521.113C744.068 513.838 732.705 509.277 717.833 508.565L718.167 501.573C734.388 502.349 747.244 507.38 757.319 515.721C767.351 524.027 774.398 535.426 779.369 548.599C783.37 559.204 786.071 571.087 787.89 583.662C789.976 561.063 793.176 537.536 798.029 516.422C802.714 496.038 809.004 477.603 817.515 464.405C826.041 451.184 837.263 442.582 851.74 443.577L851.26 450.561C840.395 449.814 831.24 456.038 823.398 468.198C815.541 480.382 809.472 497.886 804.851 517.99C799.197 542.591 795.809 570.634 793.823 596.621C794.917 591.734 796.142 586.989 797.519 582.433C802.012 567.561 808.2 554.404 816.924 544.92C825.747 535.327 837.104 529.57 851.5 529.57V536.57C839.232 536.57 829.693 541.376 822.076 549.658C814.359 558.048 808.564 570.079 804.22 584.457C796.032 611.556 793.303 645.91 791.768 677H819V724C819 735.045 810.046 744 799 744H777C765.954 744 757 735.045 757 724V677H784.318C784.26 674.258 784.219 670.864 784.208 666.922ZM777 737H799C806.18 737 812 731.179 812 724V684H764V724C764 731.179 769.82 737 777 737Z" fill="black"/>
<path fill-rule="evenodd" clip-rule="evenodd" d="M763 771.167V907H816V771.167H835V744H741V771.167H763ZM828 751H748V764.167H763V764.123H816V764.167H828V751ZM770 900V771.167H809V900H770Z" fill="black"/>
<path fill-rule="evenodd" clip-rule="evenodd" d="M66 653V592C66 580.954 74.9543 572 86 572H351C357.85 572 363.895 575.444 367.5 580.694C371.105 575.444 377.15 572 384 572H649C660.046 572 669 580.954 669 592V653H673.152C684.114 653 693 661.954 693 673V837H655V907H622V837H120V907H87V837H41V673C41 661.954 49.8862 653 60.8478 653H66ZM79.1399 653L79.2798 653.006C79.3514 653.008 79.4229 653.012 79.4944 653.015C86.5768 653.292 92.7068 657.309 95.9947 663.161C97.6454 666.048 98.6025 669.38 98.6433 672.929L98.92 697H364V592C364 584.82 358.18 579 351 579H86C78.8203 579 73 584.82 73 592V653H79.1399ZM656 660C648.544 660 642.5 666.044 642.5 673.5V704H642.388V740H91.6119V673C91.6119 672.094 91.5199 671.209 91.3447 670.355C90.1094 664.664 85.1956 660.331 79.1815 660.008C79.0253 660.003 78.8684 660 78.7108 660H60.8478C53.7227 660 47.9467 665.82 47.9467 673V794H686.053V673C686.053 665.82 680.277 660 673.152 660H656ZM99 704V733H364V704H99ZM635.124 704H371V733H635.124V704ZM662 653V592C662 584.82 656.18 579 649 579H384C376.82 579 371 584.82 371 592V697H635.441V673C635.441 661.954 644.328 653 655.289 653H662ZM686.053 830V801H47.9467V830H686.053ZM113 837.284H94V899.716H113V837.284ZM648 837.284H629V899.716H648V837.284Z" fill="black"/>
<path d="M0 900H1300V1000H0V900Z" fill="black"/>
</svg>
